X:1
T:The Light of the World Is Jesus
T:Philip Paul Bliss, 1875
T:The Light of the World Is Jesus
T:Public Domain
T:Public Domain
C:Philip Paul Bliss, 1875
Z:Public Domain
%%score ( 1 2 ) ( 3 4 )
L:1/8
M:6/8
K:F
V:1 treble 
V:2 treble 
V:3 bass 
V:4 bass 
V:1
 C | [CF][CG][CA] [FA]>[FG]F | [EG][DF][EG] [FA]2 [FA] | [Fc]>[Fc][Fc] [Ac]2 [FA] | [FA]3 [EG]2 C | %5
w: 1.~The|world was lost In the dark-|of sin, The Light of|the world is Je- sus!|Like sun- shine|
w: 2.~No|ness have we Who in Je-|a- bide; The Light of|the world is Je- sus!|We walk in|
w: 3.~Ye|ers in dark- ness With sin|ed eyes, The Light of|the world is Je- sus!|Go, wash, at|
w: 4.~No|of the sun- light In Hea-|we’re told; The Light of|the world is Je- sus!|The Lamb is|
 [CF][CG][CA] [FA]>[FG]F | [EG][DF][EG] [FA]2 [FA] | [Fc]>[Fc][Fc] [Ac]2 [FA] | [EG]3 F3 || %9
w: noon- day, His glor- y shone|The Light of the world|is Je- sus! * *||
w: light When we fol- low our|The Light of the world|is Je- sus! * *||
w: bid- ding, And light will a-|The Light of the world|is Je- sus! * *||
w: Light In the ci- ty of|The Light of the world|is Je- sus! * *||
"^Refrain" [EG][EG][FA] [EG]2 [Ec] | [F=B][FA][FB] [Ec]3 | [EG][EG][FA] [EG]2 [Ec] | %12
w: |||
w: |||
w: |||
w: |||
 [F=B][FA][FB] (E2 G) | [Fc][FA][FB] [Fc]2 [_EA] | [DB][CA][DB] [Fd]2 [Fd] | %15
w: |||
w: |||
w: |||
w: |||
 [Fc]>[Fc][Fc] [Ac]2 [FA] | [EG]3 F2 |] %17
w: ||
w: ||
w: ||
w: ||
V:2
 C | x5 F | x6 | x6 | x5 C | x5 F | x6 | x6 | x3 F3 || x6 | x6 | x6 | x3 c3 | x6 | x6 | x6 | %16
w: whole|ness|||at|in.|||||||||||
w: dark-|sus|||the|Guide!|||||||||||
w: dwell-|blind-|||His|rise.|||||||||||
w: need|ven|||the|gold,|||||||||||
 x3 F2 |] %17
w: |
w: |
w: |
w: |
V:3
 [F,A,] | [F,A,][F,B,][F,C] [F,C]>[F,B,][F,A,] | [C,C][C,C][C,C] [F,C]2 F, | %3
w: ~|~ ~ ~ ~ ~ ~|~ ~ ~ ~ ~|
 [F,A,]>[F,A,][F,A,] [F,C]2 [F,C] | [C,C]3 [C,C]2 [F,A,] | [F,A,][F,B,][F,C] [F,C]>[F,B,][F,A,] | %6
w: ~ ~ ~ ~ ~|~ ~ ~|~ ~ ~ ~ ~ ~|
 [C,C][C,C][C,C] [F,C]2 F, | [F,A,][F,A,][F,A,] [F,C]2 [F,C] | [C,B,]3 [F,A,]3 || %9
w: ~ ~ ~ ~ ~|~ ~ ~ ~ ~|Come to|
 [C,C][C,C][C,C] [C,C]2 [C,C] | [G,D][G,D][G,D] [C,C]3 | [C,C][C,C][C,C] [C,C]2 [C,C] | %12
w: the light, ’tis shin- ing|for thee; Sweet- ly|the light has dawned up-|
 [G,D][G,D][G,D] (C2 B,) | [F,A,]F,[F,G,] [F,A,]2 [F,C] | [B,,B,][B,,B,][B,,B,] [B,,B,]2 [B,,B,] | %15
w: on me. Once I *|blind, but now I can|see: The Light of the|
 [F,A,]>[F,A,][F,A,] [F,C]2 [F,C] | [C,B,]3 [F,A,]2 |] %17
w: world is Je- sus! *||
V:4
 x | x6 | x5 F, | x6 | x6 | x6 | x5 F, | x6 | x6 || x6 | x6 | x6 | x3 C,3 | x6 | x6 | x6 | x5 |] %17
w: ||~||||~||||||was|||||

